docs/.gitbook/assets/icon-glasses-16@light.svg

<svg width="32" height="32" viewBox="0 0 16 16" fill="none" xmlns="http://www.w3.org/2000/svg">
<rect x="0" y="0" width="16" height="16" fill="#fff"/>
<path fill-rule="evenodd" clip-rule="evenodd" d="M3.44734 3.02643C3.84696 3.13542 4.08256 3.54772 3.97357 3.94734L3.10391 7.13612C3.38688 7.04767 3.68787 7.00001 4 7.00001C5.06858 7.00001 6.00667 7.55869 6.53811 8.3999C6.90617 8.16316 7.38705 8.00001 8 8.00001C8.61296 8.00001 9.09383 8.16316 9.46189 8.3999C9.99333 7.55869 10.9314 7.00001 12 7.00001C12.3121 7.00001 12.6131 7.04767 12.8961 7.13612L12.0264 3.94734C11.9174 3.54772 12.153 3.13542 12.5527 3.02643C12.9523 2.91745 13.3646 3.15305 13.4736 3.55267L14.9736 9.05267C14.9911 9.11698 15 9.18334 15 9.25001V10C15 11.6569 13.6569 13 12 13C10.3806 13 9.06094 11.7169 9.00205 10.112C8.99894 10.1033 8.99532 10.0937 8.99114 10.0832C8.96483 10.0175 8.92062 9.92949 8.85185 9.84353C8.73318 9.69519 8.50511 9.50001 8 9.50001C7.49489 9.50001 7.26682 9.69519 7.14815 9.84353C7.07938 9.92949 7.03517 10.0175 7.00886 10.0832C7.00468 10.0937 7.00106 10.1033 6.99795 10.112C6.93906 11.7169 5.61937 13 4 13C2.34315 13 1 11.6569 1 10V9.25001C1 9.18334 1.00889 9.11698 1.02643 9.05267L2.52643 3.55267C2.63541 3.15305 3.04772 2.91745 3.44734 3.02643ZM2.5 10C2.5 10.8284 3.17157 11.5 4 11.5C4.82843 11.5 5.5 10.8284 5.5 10C5.5 9.17158 4.82843 8.50001 4 8.50001C3.17157 8.50001 2.5 9.17158 2.5 10ZM13.5 10C13.5 9.17158 12.8284 8.50001 12 8.50001C11.1716 8.50001 10.5 9.17158 10.5 10C10.5 10.8284 11.1716 11.5 12 11.5C12.8284 11.5 13.5 10.8284 13.5 10Z" fill="#000"/>
</svg>

<svg xmlns="http://www.w3.org/2000/svg" width="32" height="32" fill="none" viewBox="0 0 16 16"><path fill="#fff" d="M0 0h16v16H0z"/><path fill="#000" fill-rule="evenodd" d="M3.447 3.026a.75.75 0 0 1 .527.921l-.87 3.19Q3.53 7 4 7c1.069 0 2.007.559 2.538 1.4.368-.237.85-.4 1.462-.4.613 0 1.094.163 1.462.4a3 3 0 0 1 3.434-1.264l-.87-3.189a.75.75 0 1 1 1.448-.394l1.5 5.5q.026.096.026.197V10a3 3 0 0 1-5.998.112l-.01-.029a1 1 0 0 0-.14-.24C8.733 9.696 8.505 9.5 8 9.5s-.733.195-.852.344a1 1 0 0 0-.15.268A3 3 0 0 1 1 10v-.75a.8.8 0 0 1 .026-.197l1.5-5.5a.75.75 0 0 1 .921-.527M2.5 10a1.5 1.5 0 1 0 3 0 1.5 1.5 0 0 0-3 0m11 0a1.5 1.5 0 1 0-3 0 1.5 1.5 0 0 0 3 0" clip-rule="evenodd"/></svg>
